public/assets/imgs/dropdown.svg

<svg width="32" height="32" viewBox="0 0 32 32" fill="none" xmlns="http://www.w3.org/2000/svg">
<circle cx="16" cy="16" r="16" fill="#777777"/>
<path fill-rule="evenodd" clip-rule="evenodd" d="M13.9784 21.2236C15.1284 22.3735 16.9927 22.3735 18.1427 21.2236L23.8812 15.485C24.2777 15.0885 24.2777 14.4456 23.8812 14.049C23.4847 13.6525 22.8418 13.6525 22.4453 14.049L16.7067 19.7876C16.3498 20.1445 15.7712 20.1445 15.4144 19.7876L9.6758 14.049C9.27928 13.6525 8.63639 13.6525 8.23987 14.049C7.84334 14.4456 7.84334 15.0885 8.23987 15.485L13.9784 21.2236Z" fill="white"/>
</svg>

<svg fill="none" height="32" viewBox="0 0 32 32" width="32" xmlns="http://www.w3.org/2000/svg"><circle cx="16" cy="16" fill="#777" r="16"/><path clip-rule="evenodd" d="m13.9784 21.2236c1.15 1.1499 3.0143 1.1499 4.1643 0l5.7385-5.7386c.3965-.3965.3965-1.0394 0-1.436-.3965-.3965-1.0394-.3965-1.4359 0l-5.7386 5.7386c-.3569.3569-.9355.3569-1.2923 0l-5.7386-5.7386c-.39652-.3965-1.03941-.3965-1.43593 0-.39653.3966-.39653 1.0395 0 1.436z" fill="#fff" fill-rule="evenodd"/></svg>
